24x24/apps/geotrans.svg

<svg xmlns="http://www.w3.org/2000/svg" width="24" height="24" version="1"><path style="opacity:.2" d="M1 5.5v2h1v10H1v2h22v-2h-1v-10h1v-2h-1v1h-2v-1h-1v1h-2v-1h-1v2h1v5h-3v-3h1v-2h-1v1h-1.5v-1h-1v1H10v-1H9v2h1v3H7v-5h1v-2H7v1H5v-1H4v1H2v-1z"/><path style="fill:#cf2619" d="M2 12v5H1v2h22v-2h-1v-5z"/><path style="fill:#f44336" d="M9 7v2h1v8h4V9h1V7h-1v1h-1.5V7h-1v1H10V7zM1 5v2h1v10h5V7h1V5H7v1H5V5H4v1H2V5zM23 5v2h-1v10h-5V7h-1V5h1v1h2V5h1v1h2V5z"/><path style="opacity:.2" d="M4 8.5v3h1v-3H4zm15 0v3h1v-3h-1zm-15 5v3h1v-3H4zm4 0v2h1v-2H8zm3.5 0v.5H11v3.5h2V14h-.5v-.5h-1zm3.5 0v2h1v-2h-1zm4 0v3h1v-3h-1z"/><path style="fill:#f4f4f7" transform="scale(-1 1)" d="M-16 13h1v2h-1z"/><path style="opacity:.2;fill:#f4f4f7" d="M1 5v.5h1V5H1zm3 0v.5h1V5H4zm3 0v.5h1V5H7zm9 0v.5h1V5h-1zm3 0v.5h1V5h-1zm3 0v.5h1V5h-1zM2 6v.5h2V6H2zm3 0v.5h2V6H5zm12 0v.5h2V6h-2zm3 0v.5h2V6h-2zM9 7v.5h1V7H9zm2.5 0v.5h1V7h-1zM14 7v.5h1V7h-1zm-4 1v.5h1.5V8H10zm2.5 0v.5H14V8h-1.5z"/><path style="fill:#f4f4f7" d="M11.5 13v.5H11V17h2v-3.5h-.5V13zM4 8h1v3H4zM4 13h1v3H4z"/><path style="fill:#f4f4f7" transform="scale(-1 1)" d="M-20 8h1v3h-1zM-20 13h1v3h-1z"/><path style="opacity:.2;fill:#f4f4f7" d="M7 12v.5h3V12H7zm7 0v.5h3V12h-3zM1 17v.5h22V17H1z"/><path style="fill:#f4f4f7" d="M8 13h1v2H8z"/></svg>

<svg xmlns="http://www.w3.org/2000/svg" width="24" height="24" version="1">
 <path style="opacity:0.2" d="m 1,5.5 v 1 1 h 1 v 10 H 1 v 2 h 22 v -2 h -1 v -5 -5 h 1 v -1 -1 h -1 v 1 h -2 v -1 h -1 v 1 h -2 v -1 h -1 v 1 1 h 1 v 5 h -3 v -3 h 1 v -1 -1 h -1 v 1 h -1.5 v -1 h -1 v 1 H 10 v -1 H 9 v 1 1 h 1 v 3 H 7 v -5 h 1 v -1 -1 H 7 v 1 H 5 v -1 H 4 v 1 H 2 v -1 z"/>
 <path style="fill:#cf2619" d="m 2,12 v 5 H 1 v 2 h 22 v -2 h -1 v -5 z"/>
 <path style="fill:#f44336" d="m 9,7 v 1 1 h 1 v 3 5 h 4 V 12 9 h 1 V 8 7 H 14 V 8 H 12.5 V 7 h -1 V 8 H 10 V 7 Z"/>
 <path style="fill:#f44336" d="M 1,5 V 6 7 H 2 V 17 H 7 V 12 7 H 8 V 6 5 H 7 V 6 H 5 V 5 H 4 V 6 H 2 V 5 Z"/>
 <path style="fill:#f44336" d="M 23,5 V 6 7 H 22 V 17 H 17 V 12 7 H 16 V 6 5 h 1 v 1 h 2 V 5 h 1 v 1 h 2 V 5 Z"/>
 <path style="opacity:0.2" d="M 4 8.5 L 4 11.5 L 5 11.5 L 5 8.5 L 4 8.5 z M 19 8.5 L 19 11.5 L 20 11.5 L 20 8.5 L 19 8.5 z M 4 13.5 L 4 16.5 L 5 16.5 L 5 13.5 L 4 13.5 z M 8 13.5 L 8 15.5 L 9 15.5 L 9 13.5 L 8 13.5 z M 11.5 13.5 L 11.5 14 L 11 14 L 11 17.5 L 13 17.5 L 13 14 L 12.5 14 L 12.5 13.5 L 11.5 13.5 z M 15 13.5 L 15 15.5 L 16 15.5 L 16 13.5 L 15 13.5 z M 19 13.5 L 19 16.5 L 20 16.5 L 20 13.5 L 19 13.5 z"/>
 <rect style="fill:#f4f4f7" width="1" height="2" x="-16" y="13" transform="scale(-1,1)"/>
 <path style="opacity:0.2;fill:#f4f4f7" d="M 1 5 L 1 5.5 L 2 5.5 L 2 5 L 1 5 z M 4 5 L 4 5.5 L 5 5.5 L 5 5 L 4 5 z M 7 5 L 7 5.5 L 8 5.5 L 8 5 L 7 5 z M 16 5 L 16 5.5 L 17 5.5 L 17 5 L 16 5 z M 19 5 L 19 5.5 L 20 5.5 L 20 5 L 19 5 z M 22 5 L 22 5.5 L 23 5.5 L 23 5 L 22 5 z M 2 6 L 2 6.5 L 4 6.5 L 4 6 L 2 6 z M 5 6 L 5 6.5 L 7 6.5 L 7 6 L 5 6 z M 17 6 L 17 6.5 L 19 6.5 L 19 6 L 17 6 z M 20 6 L 20 6.5 L 22 6.5 L 22 6 L 20 6 z M 9 7 L 9 7.5 L 10 7.5 L 10 7 L 9 7 z M 11.5 7 L 11.5 7.5 L 12.5 7.5 L 12.5 7 L 11.5 7 z M 14 7 L 14 7.5 L 15 7.5 L 15 7 L 14 7 z M 10 8 L 10 8.5 L 11.5 8.5 L 11.5 8 L 10 8 z M 12.5 8 L 12.5 8.5 L 14 8.5 L 14 8 L 12.5 8 z"/>
 <path style="fill:#f4f4f7" d="m 11.5,13 v 0.5 H 11 V 17 h 2 V 13.5 H 12.5 V 13 Z"/>
 <rect style="fill:#f4f4f7" width="1" height="3" x="4" y="8"/>
 <rect style="fill:#f4f4f7" width="1" height="3" x="4" y="13"/>
 <rect style="fill:#f4f4f7" width="1" height="3" x="-20" y="8" transform="scale(-1,1)"/>
 <rect style="fill:#f4f4f7" width="1" height="3" x="-20" y="13" transform="scale(-1,1)"/>
 <path style="opacity:0.2;fill:#f4f4f7" d="M 7 12 L 7 12.5 L 10 12.5 L 10 12 L 7 12 z M 14 12 L 14 12.5 L 17 12.5 L 17 12 L 14 12 z M 1 17 L 1 17.5 L 23 17.5 L 23 17 L 1 17 z"/>
 <rect style="fill:#f4f4f7" width="1" height="2" x="8" y="13"/>
</svg>
